!! 00000] TT[00
!!!OTL: Zhai cai Xiaodiao
!!!ARE: Guizhou
!! Zhongguo Minge Jing Xuan, S. 37
!!!SCT: C0000
!!!YEM: Copyright 1995, estate of Helmut Schaffrath.
**kern
*ICvox
*Ivox
*M2/4
*k[b-e-]
*B-:
{16cc
8cc
16cc
8cc
8b-
=1
16dd
16dd
16dd
16b-
16cc
16dd
8b-
=2
16dd
16cc
16dd
16b-
8cc
8dd}
=3
{16dd
16cc
16dd
16ff
16g
16b-
8g
=4
8b-
16g
16b-
8cc
16g
16b-
=5
16cc
16dd
8g
8b-
8g}
=6
{16dd
16dd
16dd
16b-
4cc
=7
16b-
16b-
16cc
16g
4g}
=8
{16dd
16cc
16dd
16cc
16dd
16g
8b-
=9
16b-
16g
16b-
16g
4f}
=10
{16b-
16g
16d
16f
16g
16g
16b-
16g
=11
16b-
16b-
16d
16b-
16d
16b-
16g
16b-
=12
16d
16f
16b-
16g
16b-
16d
16g
16b-}
=13
{2r
=14
2r}
=15
{2dd
=16
2b-
=17
8g
16g
16b-
16cc
16r
16g
16r
=18
8f
4.r}
==
!!!AGN: Tanzlied, Xiaodiao
!! Zwei Sprechtakte als Pausen eingefÅgt.
!!!ONB: ESAC (Essen Associative Code) Database: CHINA_088
!!!AMT: simple duple
!!!AIN: vox
!!!EED: Helmut Schaffrath
!!!EEV: 1.0
*-
